;FLAVOR:Marlin
;TIME:1470
;Filament used: 0.748215m
;Layer height: 0.2
;Generated with Cura_SteamEngine 3.5.1
M140 S60
M105
M190 S60
M104 S200
M105
M109 S200
M82 ;absolute extrusion mode
G21 ;metric values
G90 ;absolute positioning
M82 ;set extruder to absolute mode
M107 ;start with the fan off
G28 X0 Y0 ;move X/Y to min endstops
G28 Z0 ;move Z to min endstops
G1 Z15.0 F9000 ;move the platform down 15mm
G92 E0 ;zero the extruded length
G1 F200 E6 ;extrude 6mm of feed stock
G92 E0 ;zero the extruded length again
G1 F9000
M300 S440 P200
M300 S660 P250
M300 S880 P300
G92 E0
G1 F1500 E-6.5
;LAYER_COUNT:135
;LAYER:0
M107
G0 F3600 X86.808 Y92.316 Z0.3
;TYPE:SKIRT
G1 F1500 E0
G1 F1800 X87.231 Y91.94 E0.01065
G1 X87.702 Y91.628 E0.02127
G1 X88.122 Y91.422 E0.03007
G1 X88.405 Y91.303 E0.03585
G1 X88.94 Y91.121 E0.04648
G1 X89.495 Y91.016 E0.0571
G1 X89.958 Y90.99 E0.06583
G1 X130.173 Y91.022 E0.82229
G1 X130.737 Y91.062 E0.83293
G1 X131.29 Y91.182 E0.84357
G1 X131.82 Y91.378 E0.8542
G1 X132.42 Y91.715 E0.86715
G1 X132.642 Y91.866 E0.8722
G1 X133.085 Y92.216 E0.88282
G1 X133.475 Y92.625 E0.89345
G1 X133.804 Y93.085 E0.90409
G1 X133.955 Y93.354 E0.90989
G1 X134.052 Y93.544 E0.9139
G1 X134.272 Y94.065 E0.92454
G1 X134.418 Y94.611 E0.93517
G1 X134.489 Y95.361 E0.94934
G1 X134.502 Y124.568 E1.49874
G1 X134.462 Y125.132 E1.50938
G1 X134.343 Y125.685 E1.52002
G1 X134.11 Y126.297 E1.53234
G1 X133.975 Y126.579 E1.53822
G1 X133.695 Y127.071 E1.54887
G1 X133.349 Y127.518 E1.5595
G1 X132.944 Y127.911 E1.57011
G1 X132.487 Y128.244 E1.58075
G1 X132.075 Y128.469 E1.58958
G1 X131.732 Y128.631 E1.59672
G1 X131.205 Y128.836 E1.60735
G1 X130.655 Y128.964 E1.61798
G1 X130.023 Y129.014 E1.6299
G1 X121.152 Y129.011 E1.79677
G1 X120.796 Y128.995 E1.80347
G1 X116.778 Y128.635 E1.87936
G1 X111.354 Y128.403 E1.98148
G1 X105.883 Y128.48 E2.0844
G1 X103.21 Y128.631 E2.13476
G1 X99.282 Y128.987 E2.20895
G1 X98.91 Y129.003 E2.21596
G1 X89.821 Y128.979 E2.38693
G1 X89.258 Y128.938 E2.39754
G1 X88.705 Y128.817 E2.40819
G1 X88.175 Y128.62 E2.41883
G1 X87.679 Y128.35 E2.42945
G1 X87.225 Y128.013 E2.44009
G1 X86.994 Y127.798 E2.44602
G1 X86.685 Y127.487 E2.45427
G1 X86.316 Y127.059 E2.4649
G1 X86.011 Y126.583 E2.47553
G1 X85.776 Y126.069 E2.48617
G1 X85.616 Y125.527 E2.4968
G1 X85.534 Y124.967 E2.50744
G1 X85.523 Y124.672 E2.513
G1 X85.496 Y95.443 E3.06281
G1 X85.535 Y94.879 E3.07344
G1 X85.654 Y94.326 E3.08408
G1 X85.967 Y93.557 E3.0997
G1 X86.143 Y93.227 E3.10674
G1 X86.443 Y92.748 E3.11737
G1 X86.808 Y92.316 E3.12801
G0 F3600 X87.133 Y92.556
G1 F1800 X87.541 Y92.208 E3.13809
G1 X87.996 Y91.923 E3.14819
G1 X88.277 Y91.79 E3.15404
G1 X88.56 Y91.671 E3.15982
G1 X89.068 Y91.501 E3.16989
G1 X89.596 Y91.408 E3.17998
G1 X89.958 Y91.39 E3.1868
G1 X130.173 Y91.422 E3.94326
G1 X130.708 Y91.462 E3.95335
G1 X131.23 Y91.582 E3.96343
G1 X131.73 Y91.777 E3.97352
G1 X132.195 Y92.045 E3.98362
G1 X132.417 Y92.196 E3.98867
G1 X132.836 Y92.53 E3.99875
G1 X133.202 Y92.923 E4.00885
G1 X133.598 Y93.536 E4.02258
G1 X133.695 Y93.726 E4.02659
G1 X133.903 Y94.221 E4.03669
G1 X134.035 Y94.74 E4.04677
G1 X134.089 Y95.361 E4.05849
G1 X134.102 Y124.568 E4.60789
G1 X134.062 Y125.103 E4.61798
G1 X133.944 Y125.626 E4.62807
G1 X133.749 Y126.124 E4.63813
G1 X133.614 Y126.406 E4.64401
G1 X133.347 Y126.872 E4.65411
G1 X133.014 Y127.292 E4.66419
G1 X132.622 Y127.658 E4.67428
G1 X132.18 Y127.962 E4.68437
G1 X131.904 Y128.107 E4.69024
G1 X131.561 Y128.269 E4.69737
G1 X131.061 Y128.461 E4.70745
G1 X130.537 Y128.577 E4.71754
G1 X130.023 Y128.614 E4.72724
G1 X121.152 Y128.611 E4.89411
G1 X120.831 Y128.597 E4.90015
G1 X116.808 Y128.236 E4.97613
G1 X111.348 Y128.003 E5.07893
G1 X105.856 Y128.08 E5.18225
G1 X103.18 Y128.232 E5.23266
G1 X99.246 Y128.588 E5.30697
G1 X98.911 Y128.603 E5.31327
G1 X89.822 Y128.579 E5.48424
G1 X89.288 Y128.538 E5.49432
G1 X88.765 Y128.417 E5.50442
G1 X88.266 Y128.221 E5.5145
G1 X87.802 Y127.952 E5.52459
G1 X87.278 Y127.516 E5.53741
G1 X86.969 Y127.205 E5.54566
G1 X86.621 Y126.798 E5.55573
G1 X86.336 Y126.343 E5.56583
G1 X86.123 Y125.851 E5.57592
G1 X85.985 Y125.333 E5.586
G1 X85.923 Y124.671 E5.59851
G1 X85.896 Y95.442 E6.14832
G1 X85.935 Y94.907 E6.15841
G1 X86.054 Y94.384 E6.1685
G1 X86.32 Y93.745 E6.18152
G1 X86.496 Y93.415 E6.18856
G1 X86.782 Y92.962 E6.19863
G1 X87.133 Y92.556 E6.20873
G0 F3600 X87.457 Y92.8
G1 F1800 X87.848 Y92.479 E6.21824
G1 X88.432 Y92.159 E6.23077
G1 X88.715 Y92.04 E6.23655
G1 X89.195 Y91.882 E6.24605
G1 X89.694 Y91.801 E6.25556
G1 X89.958 Y91.79 E6.26053
G1 X130.173 Y91.822 E7.017
G1 X130.677 Y91.862 E7.02651
G1 X131.168 Y91.982 E7.03602
G1 X131.634 Y92.177 E7.04552
G1 X131.97 Y92.376 E7.05286
G1 X132.192 Y92.527 E7.05791
G1 X132.586 Y92.844 E7.06743
G1 X132.925 Y93.218 E7.07692
G1 X133.242 Y93.718 E7.08806
G1 X133.339 Y93.908 E7.09207
G1 X133.533 Y94.375 E7.10158
G1 X133.65 Y94.867 E7.1111
G1 X133.689 Y95.362 E7.12044
G1 X133.702 Y124.569 E7.66984
G1 X133.662 Y125.073 E7.67935
G1 X133.544 Y125.564 E7.68885
G1 X133.388 Y125.952 E7.69671
G1 X133.253 Y126.234 E7.70259
G1 X133 Y126.671 E7.71209
G1 X132.68 Y127.063 E7.72161
G1 X132.303 Y127.4 E7.73112
G1 X131.734 Y127.746 E7.74365
G1 X131.391 Y127.908 E7.75078
G1 X130.918 Y128.087 E7.7603
G1 X130.423 Y128.189 E7.7698
G1 X130.023 Y128.214 E7.77734
G1 X121.152 Y128.211 E7.94421
G1 X120.867 Y128.198 E7.94958
G1 X116.84 Y127.837 E8.02563
G1 X111.36 Y127.603 E8.12881
G1 X105.85 Y127.68 E8.23246
G1 X103.152 Y127.833 E8.2833
G1 X99.21 Y128.19 E8.35775
G1 X98.913 Y128.203 E8.36334
G1 X89.824 Y128.179 E8.53431
G1 X89.32 Y128.138 E8.54382
G1 X88.829 Y128.018 E8.55333
G1 X88.363 Y127.822 E8.56284
G1 X87.933 Y127.555 E8.57236
G1 X87.562 Y127.234 E8.58159
G1 X87.253 Y126.923 E8.58984
G1 X86.926 Y126.538 E8.59934
G1 X86.664 Y126.105 E8.60886
G1 X86.473 Y125.637 E8.61837
G1 X86.359 Y125.145 E8.62787
G1 X86.323 Y124.671 E8.63681
G1 X86.296 Y95.442 E9.18662
G1 X86.335 Y94.938 E9.19613
G1 X86.454 Y94.446 E9.20565
G1 X86.672 Y93.933 E9.21614
G1 X86.848 Y93.603 E9.22317
G1 X87.121 Y93.177 E9.23269
G1 X87.457 Y92.8 E9.24219
G1 F1500 E2.74219
G0 F3600 X88.988 Y94.903
G0 X90.088 Y95.591
G0 X113.903 Y101.391
G0 X115.673 Y102.009
G0 X117.236 Y102.774
G0 X118.997 Y103.951
G0 X120.514 Y105.316
G0 X121.904 Y106.977
G0 X122.966 Y108.708
G0 X123.816 Y110.658
G0 X124.366 Y112.684
G0 X124.626 Y114.899
G0 X124.57 Y116.929
G0 X127.59 Y121.161
G0 X129.507 Y117.505
G0 X129.442 Y117.429
;TYPE:WALL-INNER
G1 F1500 E9.24219
G1 F1800 X129.547 Y117.309 E9.24519
G1 X129.692 Y117.144 E9.24932
G1 X129.872 Y116.881 E9.25532
G1 X129.926 Y116.774 E9.25757
G1 X129.926 Y116.881 E9.25765
G1 X129.926 Y117.144 E9.25926
G1 X129.926 Y117.364 E9.2626
G1 X129.926 Y124.223 E9.39162
G1 X129.926 Y124.423 E9.39538
G1 X129.726 Y124.423 E9.39782
G1 X121.927 Y124.422 E9.54452
G1 X121.653 Y124.422 E9.54967
G1 X121.61 Y124.421 E9.55048
G1 X121.653 Y124.306 E9.55164
G1 X121.811 Y124.082 E9.55518
G1 X122.046 Y123.75 E9.56283
G1 X122.418 Y123.179 E9.57565
G1 X122.775 Y122.566 E9.58899
G1 X123.067 Y122.012 E9.60077
G1 X123.336 Y121.444 E9.61259
G1 X123.607 Y120.79 E9.62591
G1 X123.822 Y120.201 E9.6377
G1 X124.012 Y119.603 E9.64951
G1 X124.187 Y118.945 E9.66231
G1 X124.324 Y118.328 E9.6742
G1 X124.438 Y117.662 E9.68691
G1 X124.53 Y116.931 E9.70077
G1 X124.578 Y116.285 E9.71296
G1 X124.584 Y116.195 E9.71465
G1 X124.593 Y115.799 E9.72211
G1 X124.6 Y115.5 E9.72773
G1 X124.593 Y115.133 E9.73464
G1 X124.587 Y114.896 E9.7391
G1 X124.583 Y114.824 E9.74045
G1 X124.577 Y114.724 E9.74234
G1 X124.542 Y114.192 E9.75237
G1 X124.456 Y113.452 E9.76638
G1 X124.328 Y112.696 E9.7808
G1 X124.185 Y112.041 E9.79341
G1 X123.985 Y111.312 E9.80763
G1 X123.78 Y110.676 E9.8202
G1 X123.545 Y110.05 E9.83278
G1 X123.268 Y109.407 E9.84595
G1 X122.933 Y108.729 E9.86018
G1 X122.611 Y108.143 E9.87275
G1 X122.261 Y107.574 E9.88532
G1 X121.869 Y106.997 E9.89844
G1 X121.467 Y106.464 E9.911
G1 X121.002 Y105.902 E9.92472
G1 X120.489 Y105.346 E9.93895
G1 X120.036 Y104.896 E9.95096
G1 X119.54 Y104.447 E9.96355
G1 X118.977 Y103.985 E9.97725
G1 X118.391 Y103.553 E9.99094
G1 X117.835 Y103.18 E10.00353
G1 X117.213 Y102.806 E10.01719
G1 X116.618 Y102.486 E10.02989
G1 X115.971 Y102.176 E10.04339
G1 X115.337 Y101.911 E10.05632
G1 X114.633 Y101.654 E10.07041
G1 X113.889 Y101.428 E10.08504
G1 X113.222 Y101.261 E10.09797
G1 X112.549 Y101.124 E10.11089
G1 X111.869 Y101.021 E10.12383
G1 X111.107 Y100.942 E10.13824
G1 X110.336 Y100.904 E10.15276
G1 X109.708 Y100.904 E10.16457
G1 X109.029 Y100.932 E10.17736
G1 X108.259 Y101.004 E10.1919
G1 X107.555 Y101.106 E10.20529
G1 X106.809 Y101.253 E10.21959
G1 X106.158 Y101.414 E10.2322
G1 X105.435 Y101.634 E10.24642
G1 X104.804 Y101.856 E10.259
G1 X104.184 Y102.108 E10.27159
G1 X103.5 Y102.428 E10.28579
G1 X102.907 Y102.738 E10.29838
G1 X102.328 Y103.077 E10.311
G1 X101.696 Y103.493 E10.32523
G1 X101.155 Y103.885 E10.3378
G1 X100.633 Y104.301 E10.35036
G1 X100.108 Y104.762 E10.3635
G1 X99.585 Y105.268 E10.37719
G1 X99.128 Y105.756 E10.38977
G1 X98.675 Y106.286 E10.40288
G1 X98.23 Y106.861 E10.41656
G1 X97.846 Y107.409 E10.42914
G1 X97.473 Y108 E10.44229
G1 X97.114 Y108.635 E10.45601
G1 X96.806 Y109.248 E10.46892
G1 X96.515 Y109.903 E10.4824
G1 X96.247 Y110.601 E10.49646
G1 X96.03 Y111.254 E10.50941
G1 X95.826 Y112.005 E10.52404
G1 X95.677 Y112.675 E10.53696
G1 X95.558 Y113.354 E10.54992
G1 X95.466 Y114.13 E10.56462
G1 X95.423 Y114.726 E10.57586
G1 X95.417 Y114.811 E10.57747
G1 X95.415 Y114.831 E10.57784
G1 X95.41 Y115.199 E10.58477
G1 X95.405 Y115.507 E10.59056
G1 X95.402 Y115.632 E10.59291
G1 X95.409 Y115.864 E10.59728
G1 X95.42 Y116.185 E10.60332
G1 X95.426 Y116.358 E10.60658
G1 X95.426 Y116.361 E10.60663
G1 X95.483 Y117.057 E10.61977
G1 X95.579 Y117.783 E10.63354
G1 X95.726 Y118.563 E10.64847
G1 X95.888 Y119.243 E10.66162
G1 X96.084 Y119.918 E10.67485
G1 X96.345 Y120.665 E10.68973
G1 X96.607 Y121.315 E10.70291
G1 X96.897 Y121.939 E10.71586
G1 X97.227 Y122.569 E10.72923
G1 X97.555 Y123.136 E10.74156
G1 X97.927 Y123.71 E10.75442
G1 X98.191 Y124.084 E10.76303
G1 X98.35 Y124.31 E10.76823
G1 X98.369 Y124.353 E10.76912
G1 X98.387 Y124.422 E10.77046
G1 X98.369 Y124.422
G1 X98.351 Y124.422
G1 X98.074 Y124.422 E10.77401
G1 X90.275 Y124.426 E10.92071
G1 X90.075 Y124.426 E10.92447
G1 X90.075 Y124.226 E10.92691
G1 X90.075 Y117.37 E11.05587
G1 X90.075 Y117.104 E11.06088
G1 X90.075 Y116.831 E11.06601
G1 X90.075 Y116.78 E11.06697
G1 X90.099 Y116.831
G1 X90.277 Y117.104 E11.06922
G1 X90.451 Y117.305 E11.07305
G1 X90.542 Y117.411 E11.07568
G1 X90.784 Y117.626 E11.08177
G1 X91.096 Y117.837 E11.08886
G1 X91.388 Y117.984 E11.09501
G1 X91.753 Y118.11 E11.10227
G1 X92.077 Y118.176 E11.10849
G1 X92.447 Y118.201 E11.11546
G1 X92.755 Y118.184 E11.12127
G1 X93.167 Y118.103 E11.12917
G1 X93.472 Y118 E11.13522
G1 X93.787 Y117.848 E11.1418
G1 X94.101 Y117.637 E11.14892
G1 X94.342 Y117.428 E11.15492
G1 X94.576 Y117.167 E11.16151
G1 X94.787 Y116.854 E11.16861
G1 X94.934 Y116.562 E11.17476
G1 X95.048 Y116.232 E11.18133
G1 X95.049 Y116.229
G1 X95.06 Y116.197 E11.18186
G1 X95.126 Y115.873 E11.18688
G1 X95.143 Y115.614 E11.19027
G1 X95.151 Y115.503 E11.19157
G1 X95.134 Y115.195 E11.19541
G1 X95.076 Y114.898 E11.1997
G1 X95.053 Y114.783 E11.20176
G1 X95.026 Y114.702 E11.2033
G1 X94.951 Y114.481 E11.20769
G1 X94.814 Y114.192 E11.2137
G1 X94.589 Y113.851 E11.22139
G1 X94.378 Y113.608 E11.22744
G1 X94.117 Y113.374 E11.23404
G1 X93.804 Y113.163 E11.24114
G1 X93.514 Y113.017 E11.24724
G1 X93.177 Y112.898 E11.25397
G1 X92.853 Y112.83 E11.26019
G1 X92.427 Y112.8 E11.26823
G1 X92.115 Y112.819 E11.27411
G1 X91.762 Y112.888 E11.28087
G1 X91.459 Y112.988 E11.28688
G1 X91.118 Y113.149 E11.29397
G1 X90.846 Y113.327 E11.30008
G1 X90.539 Y113.592 E11.30771
G1 X90.455 Y113.686 E11.31008
G1 X90.324 Y113.834 E11.3138
G1 X90.113 Y114.146 E11.32089
G1 X90.075 Y114.222 E11.32248
G1 X90.075 Y114.146
G1 X90.075 Y113.835 E11.32504
G1 X90.075 Y113.637 E11.32811
G1 X90.074 Y95.577 E11.66782
G1 X129.923 Y95.574 E12.41741
G1 X129.924 Y113.63 E12.75705
G1 X129.924 Y113.868 E12.76153
G1 X129.925 Y114.14 E12.76664
G1 X129.926 Y114.228 E12.7683
G1 X129.884 Y114.141
G1 X129.704 Y113.869 E12.7708
G1 X129.547 Y113.691 E12.77432
G1 X129.456 Y113.588 E12.77691
G1 X129.22 Y113.376 E12.78288
G1 X128.957 Y113.196 E12.78887
G1 X128.615 Y113.018 E12.79612
G1 X128.247 Y112.89 E12.80345
G1 X127.923 Y112.824 E12.80967
G1 X127.553 Y112.799 E12.81665
G1 X127.245 Y112.816 E12.82245
G1 X126.833 Y112.897 E12.83035
G1 X126.528 Y113 E12.83641
G1 X126.213 Y113.152 E12.84298
G1 X125.898 Y113.363 E12.85012
G1 X125.656 Y113.574 E12.85616
G1 X125.408 Y113.855 E12.86321
G1 X125.228 Y114.12 E12.86923
G1 X125.081 Y114.408 E12.87531
G1 X124.974 Y114.705 E12.88125
G1 X124.941 Y114.8 E12.88305
G1 X124.908 Y114.962 E12.88584
G1 X124.874 Y115.127 E12.88809
G1 X124.849 Y115.497 E12.89273
G1 X124.866 Y115.805 E12.89654
G1 X124.929 Y116.127 E12.90122
G1 X124.947 Y116.217 E12.90295
G1 X124.976 Y116.303 E12.90458
G1 X125.049 Y116.519 E12.90887
G1 X125.186 Y116.808 E12.91488
G1 X125.411 Y117.149 E12.92257
G1 X125.622 Y117.392 E12.92862
G1 X125.883 Y117.626 E12.93522
G1 X126.196 Y117.837 E12.94232
G1 X126.488 Y117.984 E12.94847
G1 X126.853 Y118.11 E12.95573
G1 X127.177 Y118.176 E12.96195
G1 X127.547 Y118.201 E12.96893
G1 X127.855 Y118.184 E12.97473
G1 X128.267 Y118.103 E12.98263
G1 X128.572 Y118 E12.98868
G1 X128.882 Y117.85 E12.99516
G1 X129.152 Y117.676 E13.0012
G1 X129.442 Y117.429 E13.00837
G0 F3600 X129.507 Y117.505
G0 X129.862 Y116.145
G0 X129.766 Y116.119
;TYPE:WALL-OUTER
G1 F1800 X129.832 Y115.788 E13.01472
G1 X129.849 Y115.473 E13.02065
G1 X129.833 Y115.216 E13.02549
G1 X129.774 Y114.913 E13.0313
G1 X129.69 Y114.657 E13.03637
G1 X129.536 Y114.34 E13.043
G1 X129.386 Y114.113 E13.04812
G1 X129.172 Y113.87 E13.05421
G1 X128.972 Y113.691 E13.05926
G1 X128.751 Y113.539 E13.0643
G1 X128.457 Y113.386 E13.07054
G1 X128.141 Y113.277 E13.07682
G1 X127.869 Y113.221 E13.08205
G1 X127.551 Y113.2 E13.08804
G1 X127.294 Y113.214 E13.09288
G1 X126.936 Y113.284 E13.09974
G1 X126.68 Y113.371 E13.10483
G1 X126.412 Y113.5 E13.11043
G1 X126.142 Y113.681 E13.11654
G1 X125.939 Y113.858 E13.12161
G1 X125.725 Y114.101 E13.1277
G1 X125.573 Y114.324 E13.13277
G1 X125.449 Y114.567 E13.13791
G1 X125.327 Y114.908 E13.14472
G1 X125.271 Y115.181 E13.14996
G1 X125.25 Y115.499 E13.15595
G1 X125.264 Y115.756 E13.1608
G1 X125.334 Y116.114 E13.16766
G1 X125.42 Y116.369 E13.17272
G1 X125.535 Y116.611 E13.17776
G1 X125.73 Y116.907 E13.18443
G1 X125.907 Y117.111 E13.18951
G1 X126.129 Y117.309 E13.1951
G1 X126.399 Y117.491 E13.20123
G1 X126.644 Y117.615 E13.20639
G1 X126.959 Y117.723 E13.21266
G1 X127.231 Y117.779 E13.21788
G1 X127.549 Y117.8 E13.22388
G1 X127.806 Y117.786 E13.22872
G1 X128.164 Y117.716 E13.23558
G1 X128.42 Y117.629 E13.24067
G1 X128.686 Y117.501 E13.24622
G1 X128.913 Y117.354 E13.25131
G1 X129.161 Y117.143 E13.25743
G1 X129.375 Y116.899 E13.26354
G1 X129.527 Y116.676 E13.26861
G1 X129.651 Y116.434 E13.27373
G1 X129.766 Y116.119 E13.28003
G0 F3600 X129.805 Y115.923
G0 X129.903 Y115.942
G0 X129.406 Y116.923
G0 X128.936 Y117.386
G0 X128.174 Y117.754
G0 X127.547 Y118.2
G0 X126.949 Y117.761
G0 X126.379 Y117.525
G0 X125.879 Y117.139
G0 X124.226 Y114.912
G0 X123.974 Y112.765
G0 X123.439 Y110.795
G0 X122.613 Y108.896
G0 X121.576 Y107.207
G0 X120.229 Y105.597
G0 X118.755 Y104.27
G0 X117.034 Y103.12
G0 X115.205 Y102.247
G0 X113.141 Y101.612
G0 X111.079 Y101.302
G0 X109.054 Y101.292
G0 X106.888 Y101.605
G0 X104.932 Y102.193
G0 X103.082 Y103.054
